icons/svg/account-search.svg

﻿<?xml version="1.0" encoding="utf-8"?>
<!DOCTYPE svg PUBLIC "-//W3C//DTD SVG 1.1//EN" "http://www.w3.org/Graphics/SVG/1.1/DTD/svg11.dtd">
<svg xmlns="http://www.w3.org/2000/svg" xmlns:xlink="http://www.w3.org/1999/xlink" version="1.1" baseProfile="full" width="24" height="24" viewBox="0 0 24.00 24.00" enable-background="new 0 0 24.00 24.00" xml:space="preserve">
	<path fill="#000000" fill-opacity="1" stroke-width="1.33333" stroke-linejoin="miter" d="M 9.5,3C 13.09,3 16,5.91 16,9.5C 16,11.11 15.4097,12.5905 14.4297,13.7305L 14.7109,14L 15.5,14L 20.4902,19L 19,20.4902L 14,15.5L 14,14.7109L 13.7305,14.4297C 12.5905,15.4097 11.11,16 9.5,16C 5.91,16 3,13.09 3,9.5C 3,5.91 5.91,3 9.5,3 Z M 9.5,14C 11.1104,14 12.5232,13.1541 13.3184,11.8824C 12.5232,10.7519 11.1104,10 9.5,10C 7.8896,10 6.47678,10.7519 5.68164,11.8824C 6.47678,13.1541 7.8896,14 9.5,14 Z M 9.5,5C 8.5335,5 7.75,5.7835 7.75,6.75C 7.75,7.7165 8.5335,8.5 9.5,8.5C 10.4665,8.5 11.25,7.7165 11.25,6.75C 11.25,5.7835 10.4665,5 9.5,5 Z "/>
</svg>

<svg xmlns="http://www.w3.org/2000/svg" version="1.1" baseProfile="full" width="24" height="24" viewBox="0 0 24.00 24.00" xml:space="preserve"><path fill="#000" fill-opacity="1" stroke-width="1.333" stroke-linejoin="miter" d="M9.5 3C13.09 3 16 5.91 16 9.5c0 1.61-.59 3.09-1.57 4.23l.28.27h.79l4.99 5L19 20.49l-5-4.99v-.79l-.27-.28C12.59 15.41 11.11 16 9.5 16 5.91 16 3 13.09 3 9.5S5.91 3 9.5 3zm0 11c1.61 0 3.023-.846 3.818-2.118C12.523 10.752 11.11 10 9.5 10c-1.61 0-3.023.752-3.818 1.882C6.477 13.154 7.89 14 9.5 14zm0-9c-.966 0-1.75.784-1.75 1.75S8.534 8.5 9.5 8.5s1.75-.784 1.75-1.75S10.466 5 9.5 5z"/></svg>
